X:193
T:Belharbour Reel, The
T:Sailor's Return, The
T:Sailor's Farewell, The
T:Rough Road, The
R:reel
C:Chris Droney
Z:id:hn-reel-193
M:C|
K:G
DG~G2 DGBd|~g3d egdB|A2GB A2BA|GBAF GFEF|
DG~G2 DGBd|g2gd egdB|G2 (3Bcd gedc|1 BGAF G2GE:|2 BGAF G2AB||
|:dggf gGBd|g2af gfed|eaag abag|e2ag edBc|
dggf gGBd|g2af gedB|GA (3Bcd gedc|1 BGAF G2AB:|2 BGAF G2GE||
P:Variations:
|:dG~G2 DG (3Bcd|g2dg egdB|~A3G AdBA|G2AG FAEA|
dG~G2 DG (3Bcd|g2dg eBdB|GA (3Bcd gedc|BGAF ~G3B:|
|:dggf gG (3Bcd|gbaf gfed|eaag abag|eaag edBc|
dgga gdBd|g2af gedB|GA (3Bcd gedc|BGAF ~G3B:|

